static/img/pages/index/easyToUse.svg

<svg width="205" height="113" viewBox="0 0 225 124" fill="none" xmlns="http://www.w3.org/2000/svg">
<path d="M0 9H176V118C176 121.314 173.314 124 170 124H6C2.6863 124 0 121.314 0 118V9Z" fill="white"/>
<path d="M9.056 29.5259V28.4099H11.408V22.1339H11.312L9.368 24.2099L8.54 23.4659L10.676 21.1499H12.752V28.4099H14.78V29.5259H9.056Z" fill="#D14671"/>
<path d="M14.54 50.8716H8.756V49.5876L11.492 47.1996C11.924 46.8156 12.256 46.4516 12.488 46.1076C12.728 45.7636 12.848 45.3996 12.848 45.0156V44.8836C12.848 44.4436 12.728 44.1076 12.488 43.8756C12.248 43.6356 11.9 43.5156 11.444 43.5156C10.98 43.5156 10.62 43.6396 10.364 43.8876C10.116 44.1356 9.936 44.4516 9.824 44.8356L8.648 44.3916C8.728 44.1276 8.844 43.8756 8.996 43.6356C9.148 43.3876 9.34 43.1676 9.572 42.9756C9.812 42.7836 10.092 42.6316 10.412 42.5196C10.74 42.4076 11.116 42.3516 11.54 42.3516C11.972 42.3516 12.356 42.4156 12.692 42.5436C13.036 42.6636 13.324 42.8316 13.556 43.0476C13.788 43.2636 13.964 43.5236 14.084 43.8276C14.204 44.1236 14.264 44.4516 14.264 44.8116C14.264 45.1476 14.212 45.4596 14.108 45.7476C14.012 46.0276 13.872 46.2996 13.688 46.5636C13.512 46.8196 13.3 47.0676 13.052 47.3076C12.804 47.5476 12.532 47.7876 12.236 48.0276L10.208 49.7316H14.54V50.8716Z" fill="#D14671"/>
<path d="M11.252 67.2973C11.788 67.2973 12.184 67.1853 12.44 66.9613C12.704 66.7293 12.836 66.4413 12.836 66.0973V66.0133C12.836 65.6293 12.708 65.3373 12.452 65.1373C12.204 64.9293 11.868 64.8253 11.444 64.8253C11.036 64.8253 10.688 64.9173 10.4 65.1013C10.12 65.2853 9.884 65.5373 9.692 65.8573L8.78 65.0773C8.908 64.8933 9.056 64.7173 9.224 64.5493C9.392 64.3813 9.584 64.2373 9.8 64.1173C10.016 63.9893 10.264 63.8893 10.544 63.8173C10.824 63.7373 11.14 63.6973 11.492 63.6973C11.884 63.6973 12.248 63.7453 12.584 63.8413C12.92 63.9373 13.212 64.0813 13.46 64.2733C13.708 64.4573 13.9 64.6853 14.036 64.9573C14.172 65.2213 14.24 65.5213 14.24 65.8573C14.24 66.1213 14.196 66.3613 14.108 66.5773C14.028 66.7933 13.912 66.9853 13.76 67.1533C13.616 67.3133 13.444 67.4453 13.244 67.5493C13.044 67.6533 12.832 67.7293 12.608 67.7773V67.8373C12.848 67.8853 13.076 67.9653 13.292 68.0773C13.508 68.1813 13.7 68.3213 13.868 68.4973C14.036 68.6653 14.168 68.8693 14.264 69.1093C14.36 69.3413 14.408 69.6093 14.408 69.9133C14.408 70.2813 14.336 70.6173 14.192 70.9213C14.048 71.2173 13.84 71.4733 13.568 71.6893C13.304 71.9053 12.984 72.0733 12.608 72.1933C12.232 72.3053 11.812 72.3613 11.348 72.3613C10.956 72.3613 10.608 72.3173 10.304 72.2293C10.008 72.1493 9.744 72.0413 9.512 71.9053C9.28 71.7613 9.076 71.6013 8.9 71.4253C8.732 71.2413 8.584 71.0533 8.456 70.8613L9.452 70.0933C9.66 70.4293 9.904 70.7053 10.184 70.9213C10.472 71.1293 10.864 71.2333 11.36 71.2333C11.888 71.2333 12.292 71.1133 12.572 70.8733C12.852 70.6253 12.992 70.2853 12.992 69.8533V69.7573C12.992 69.3253 12.844 68.9973 12.548 68.7733C12.26 68.5413 11.84 68.4253 11.288 68.4253H10.388V67.2973H11.252Z" fill="#D14671"/>
<path d="M12.344 93.563V91.931H8.36V90.779L11.864 85.187H13.628V90.875H14.804V91.931H13.628V93.563H12.344ZM9.5 90.875H12.344V86.423H12.272L9.5 90.875Z" fill="#D14671"/>
<path d="M14.132 107.697H10.328L10.112 110.673H10.208C10.4 110.345 10.632 110.085 10.904 109.893C11.176 109.693 11.548 109.593 12.02 109.593C12.38 109.593 12.712 109.653 13.016 109.773C13.328 109.893 13.596 110.065 13.82 110.289C14.052 110.513 14.232 110.789 14.36 111.117C14.496 111.437 14.564 111.801 14.564 112.209C14.564 112.625 14.496 113.009 14.36 113.361C14.224 113.705 14.028 114.005 13.772 114.261C13.516 114.509 13.2 114.705 12.824 114.849C12.448 114.985 12.02 115.053 11.54 115.053C11.164 115.053 10.828 115.009 10.532 114.921C10.244 114.841 9.984 114.733 9.752 114.597C9.528 114.453 9.332 114.293 9.164 114.117C8.996 113.933 8.848 113.745 8.72 113.553L9.704 112.785C9.808 112.945 9.916 113.097 10.028 113.241C10.148 113.377 10.28 113.497 10.424 113.601C10.568 113.705 10.732 113.785 10.916 113.841C11.108 113.897 11.324 113.925 11.564 113.925C12.084 113.925 12.48 113.785 12.752 113.505C13.024 113.217 13.16 112.829 13.16 112.341V112.245C13.16 111.757 13.02 111.377 12.74 111.105C12.468 110.833 12.076 110.697 11.564 110.697C11.188 110.697 10.892 110.765 10.676 110.901C10.46 111.037 10.272 111.189 10.112 111.357L8.996 111.201L9.308 106.533H14.132V107.697Z" fill="#D14671"/>
<path d="M0 6C0 2.68629 2.68629 0 6 0H170C173.314 0 176 2.68629 176 6V9H0V6Z" fill="#EAEAEA"/>
<circle cx="5.6734" cy="4.4787" r="1.49286" fill="#6422F1"/>
<circle cx="9.85394" cy="4.4787" r="1.49286" fill="#F46591"/>
<circle cx="14.0328" cy="4.4787" r="1.49286" fill="#2BD38D"/>
<rect x="21" y="23" width="86" height="7" rx="3.5" fill="#D7D7D7"/>
<rect x="41.2025" y="44.0227" width="52.5485" height="7.16571" rx="3.58285" fill="#EAEAEA"/>
<rect x="21" y="44" width="16" height="7" rx="3.5" fill="#EAEAEA"/>
<rect x="21.4969" y="65" width="37.62" height="7.16571" rx="3.58285" fill="#D7D7D7"/>
<rect x="21.4969" y="85" width="37.62" height="7.16571" rx="3.58285" fill="#EAEAEA"/>
<rect x="21" y="106" width="60" height="7" rx="3.5" fill="#EAEAEA"/>
<rect x="62.6995" y="85" width="33.44" height="7.16571" rx="3.58285" fill="#D7D7D7"/>
<rect x="99.7233" y="85" width="22.6914" height="7.16571" rx="3.58285" fill="#EAEAEA"/>
<rect x="64" y="65" width="37.62" height="7.16571" rx="3.58285" fill="#EAEAEA"/>
<g filter="url(#filter0_d)">
<rect x="140" y="44" width="81" height="63" rx="5" fill="#D14671"/>
</g>
<path d="M148.311 69.2253L156.561 75.7101L163.037 66.8103L170.933 73.1162L175.723 67.1681L180.115 72.7584L191.337 66.8103L194.842 75.7101L202.737 71.6404L212.673 76.0679" stroke="white" stroke-opacity="0.1" stroke-width="2.11" stroke-miterlimit="10" stroke-linecap="round" stroke-linejoin="round"/>
<path d="M146 85.8391L155.483 75.9491L161.93 82.0161L169.872 65.2279L177.814 67.8043L186.176 57L188.091 88L192.997 72.0429L198.696 78.941L204.022 70.7962L215 74.7024" stroke="white" stroke-miterlimit="10" stroke-linecap="round" stroke-linejoin="round"/>
<circle cx="146" cy="86" r="0.7" fill="#D14671" stroke="white" stroke-width="0.6"/>
<circle cx="155" cy="76" r="0.7" fill="#D14671" stroke="white" stroke-width="0.6"/>
<circle cx="162" cy="82" r="0.7" fill="#D14671" stroke="white" stroke-width="0.6"/>
<circle cx="170" cy="65" r="0.7" fill="#D14671" stroke="white" stroke-width="0.6"/>
<circle cx="186" cy="57" r="0.7" fill="#D14671" stroke="white" stroke-width="0.6"/>
<circle cx="216" cy="75" r="0.7" fill="#D14671" stroke="white" stroke-width="0.6"/>
<circle cx="188" cy="88" r="0.7" fill="#D14671" stroke="white" stroke-width="0.6"/>
<circle cx="178" cy="68" r="0.7" fill="#D14671" stroke="white" stroke-width="0.6"/>
<circle cx="193" cy="72" r="0.7" fill="#D14671" stroke="white" stroke-width="0.6"/>
<circle cx="204" cy="71" r="0.7" fill="#D14671" stroke="white" stroke-width="0.6"/>
<circle cx="199" cy="79" r="0.7" fill="#D14671" stroke="white" stroke-width="0.6"/>
<rect x="145" y="96" width="72" height="2" fill="white"/>
<defs>
<filter id="filter0_d" x="136" y="44" width="89" height="71" filterUnits="userSpaceOnUse" color-interpolation-filters="sRGB">
<feFlood flood-opacity="0" result="BackgroundImageFix"/>
<feColorMatrix in="SourceAlpha" type="matrix" values="0 0 0 0 0 0 0 0 0 0 0 0 0 0 0 0 0 0 127 0"/>
<feOffset dy="4"/>
<feGaussianBlur stdDeviation="2"/>
<feColorMatrix type="matrix" values="0 0 0 0 0 0 0 0 0 0 0 0 0 0 0 0 0 0 0.17 0"/>
<feBlend mode="normal" in2="BackgroundImageFix" result="effect1_dropShadow"/>
<feBlend mode="normal" in="SourceGraphic" in2="effect1_dropShadow" result="shape"/>
</filter>
</defs>
</svg>

<svg width="205" height="113" viewBox="0 0 225 124" fill="none" xmlns="http://www.w3.org/2000/svg"><path d="M0 9h176v109a6 6 0 01-6 6H6a6 6 0 01-6-6V9z" fill="#fff"/><path d="M9.056 29.526V28.41h2.352v-6.276h-.096L9.368 24.21l-.828-.744 2.136-2.316h2.076v7.26h2.028v1.116H9.056zm5.484 21.346H8.756v-1.284l2.736-2.388c.432-.384.764-.748.996-1.092.24-.344.36-.708.36-1.092v-.132c0-.44-.12-.776-.36-1.008-.24-.24-.588-.36-1.044-.36-.464 0-.824.124-1.08.372a2.171 2.171 0 00-.54.948l-1.176-.444c.08-.264.196-.516.348-.756.152-.248.344-.468.576-.66.24-.192.52-.344.84-.456a3.485 3.485 0 011.128-.168c.432 0 .816.064 1.152.192.344.12.632.288.864.504.232.216.408.476.528.78.12.296.18.624.18.984 0 .336-.052.648-.156.936-.096.28-.236.552-.42.816a4.912 4.912 0 01-.636.744c-.248.24-.52.48-.816.72l-2.028 1.704h4.332v1.14zm-3.288 16.425c.536 0 .932-.112 1.188-.336.264-.232.396-.52.396-.864v-.084c0-.384-.128-.676-.384-.876-.248-.208-.584-.312-1.008-.312-.408 0-.756.092-1.044.276-.28.184-.516.436-.708.756l-.912-.78c.128-.184.276-.36.444-.528.168-.168.36-.312.576-.432.216-.128.464-.228.744-.3.28-.08.596-.12.948-.12.392 0 .756.048 1.092.144.336.096.628.24.876.432a1.9 1.9 0 01.576.684c.136.264.204.564.204.9 0 .264-.044.504-.132.72-.08.216-.196.408-.348.576a1.81 1.81 0 01-.516.396c-.2.104-.412.18-.636.228v.06c.24.048.468.128.684.24.216.104.408.244.576.42.168.168.3.372.396.612.096.232.144.5.144.804 0 .368-.072.704-.216 1.008a2.207 2.207 0 01-.624.768 2.88 2.88 0 01-.96.504 4.407 4.407 0 01-1.26.168 3.76 3.76 0 01-1.044-.132 3.22 3.22 0 01-.792-.324 3.385 3.385 0 01-.612-.48 4.726 4.726 0 01-.444-.564l.996-.768c.208.336.452.612.732.828.288.208.68.312 1.176.312.528 0 .932-.12 1.212-.36.28-.248.42-.588.42-1.02v-.096c0-.432-.148-.76-.444-.984-.288-.232-.708-.348-1.26-.348h-.9v-1.128h.864zm1.092 26.266v-1.632H8.36v-1.152l3.504-5.592h1.764v5.688h1.176v1.056h-1.176v1.632h-1.284zM9.5 90.875h2.844v-4.452h-.072L9.5 90.875zm4.632 16.822h-3.804l-.216 2.976h.096a2.45 2.45 0 01.696-.78c.272-.2.644-.3 1.116-.3.36 0 .692.06.996.18.312.12.58.292.804.516.232.224.412.5.54.828.136.32.204.684.204 1.092 0 .416-.068.8-.204 1.152a2.62 2.62 0 01-.588.9 2.761 2.761 0 01-.948.588 3.76 3.76 0 01-1.284.204 3.538 3.538 0 01-1.788-.456 3.2 3.2 0 01-.588-.48 4.726 4.726 0 01-.444-.564l.984-.768c.104.16.212.312.324.456.12.136.252.256.396.36.144.104.308.184.492.24.192.056.408.084.648.084.52 0 .916-.14 1.188-.42.272-.288.408-.676.408-1.164v-.096c0-.488-.14-.868-.42-1.14-.272-.272-.664-.408-1.176-.408-.376 0-.672.068-.888.204a2.927 2.927 0 00-.564.456l-1.116-.156.312-4.668h4.824v1.164z" fill="#D14671"/><path d="M0 6a6 6 0 016-6h164a6 6 0 016 6v3H0V6z" fill="#EAEAEA"/><circle cx="5.673" cy="4.479" r="1.493" fill="#6422F1"/><circle cx="9.854" cy="4.479" r="1.493" fill="#F46591"/><circle cx="14.033" cy="4.479" r="1.493" fill="#2BD38D"/><rect x="21" y="23" width="86" height="7" rx="3.5" fill="#D7D7D7"/><rect x="41.203" y="44.023" width="52.548" height="7.166" rx="3.583" fill="#EAEAEA"/><rect x="21" y="44" width="16" height="7" rx="3.5" fill="#EAEAEA"/><rect x="21.497" y="65" width="37.62" height="7.166" rx="3.583" fill="#D7D7D7"/><rect x="21.497" y="85" width="37.62" height="7.166" rx="3.583" fill="#EAEAEA"/><rect x="21" y="106" width="60" height="7" rx="3.5" fill="#EAEAEA"/><rect x="62.7" y="85" width="33.44" height="7.166" rx="3.583" fill="#D7D7D7"/><rect x="99.723" y="85" width="22.691" height="7.166" rx="3.583" fill="#EAEAEA"/><rect x="64" y="65" width="37.62" height="7.166" rx="3.583" fill="#EAEAEA"/><g filter="url(#filter0_d)"><rect x="140" y="44" width="81" height="63" rx="5" fill="#D14671"/></g><path d="M148.311 69.225l8.25 6.485 6.476-8.9 7.896 6.306 4.79-5.948 4.392 5.59 11.222-5.948 3.505 8.9 7.895-4.07 9.936 4.428" stroke="#fff" stroke-opacity=".1" stroke-width="2.11" stroke-miterlimit="10" stroke-linecap="round" stroke-linejoin="round"/><path d="M146 85.84l9.483-9.89 6.447 6.066 7.942-16.788 7.942 2.576L186.176 57l1.915 31 4.906-15.957 5.699 6.898 5.326-8.145L215 74.702" stroke="#fff" stroke-miterlimit="10" stroke-linecap="round" stroke-linejoin="round"/><circle cx="146" cy="86" r=".7" fill="#D14671" stroke="#fff" stroke-width=".6"/><circle cx="155" cy="76" r=".7" fill="#D14671" stroke="#fff" stroke-width=".6"/><circle cx="162" cy="82" r=".7" fill="#D14671" stroke="#fff" stroke-width=".6"/><circle cx="170" cy="65" r=".7" fill="#D14671" stroke="#fff" stroke-width=".6"/><circle cx="186" cy="57" r=".7" fill="#D14671" stroke="#fff" stroke-width=".6"/><circle cx="216" cy="75" r=".7" fill="#D14671" stroke="#fff" stroke-width=".6"/><circle cx="188" cy="88" r=".7" fill="#D14671" stroke="#fff" stroke-width=".6"/><circle cx="178" cy="68" r=".7" fill="#D14671" stroke="#fff" stroke-width=".6"/><circle cx="193" cy="72" r=".7" fill="#D14671" stroke="#fff" stroke-width=".6"/><circle cx="204" cy="71" r=".7" fill="#D14671" stroke="#fff" stroke-width=".6"/><circle cx="199" cy="79" r=".7" fill="#D14671" stroke="#fff" stroke-width=".6"/><rect x="145" y="96" width="72" height="2" fill="#fff"/><defs><filter id="filter0_d" x="136" y="44" width="89" height="71" filterUnits="userSpaceOnUse" color-interpolation-filters="sRGB"><feFlood flood-opacity="0" result="BackgroundImageFix"/><feColorMatrix in="SourceAlpha" type="matrix" values="0 0 0 0 0 0 0 0 0 0 0 0 0 0 0 0 0 0 127 0"/><feOffset dy="4"/><feGaussianBlur stdDeviation="2"/><feColorMatrix type="matrix" values="0 0 0 0 0 0 0 0 0 0 0 0 0 0 0 0 0 0 0.17 0"/><feBlend mode="normal" in2="BackgroundImageFix" result="effect1_dropShadow"/><feBlend mode="normal" in="SourceGraphic" in2="effect1_dropShadow" result="shape"/></filter></defs></svg>
